X: 17713
T: Home By The Fire
R: hornpipe
M: 4/4
K: Dmajor
|:d2de dAFA|B2GB A2FA|B2dB ABde|fedf e2de|
dcde dAFA|B2GB A2FA|B2ga fAdf|1 e2ef dABc:|2 e2ef defg||
|:afdf gece|fedc B2Bf|gBdg f2fd|(3efedB ABde|
fAdf eAce|bdBd ADDA|B2ga fAdf|1 e2ef defg:|2 e2ef dABc||

